X:1
T:Title
%%score { ( 1 3 ) | ( 2 4 ) }
L:1/8
M:3/4
K:Eb
V:1 treble nm="Grand Piano"
V:3 treble 
V:2 bass 
V:4 bass 
V:1
 z2 z2[Q:1/4=100] E>F | G2 G2 G>_G | G4 E>G | [GB]2 [EG]2 [Ac]2 | [GB]2 [EG]2 [FA]>[EG] | %5
 [DF]2 [DF]2 [DF]2 | [DF]4 [B,E]>[DF] | G2 A2 c2 | B4 [GB]>[GB] | [Ge]2 [Ge]2 [Ad]>[Ac] | %10
 [GB]4 [EG][EB] | [DB]2 [DA]2 [DF]2 | c2 B2 G>F | EF GA Bc | z2 z2 G2- | G4 z2 |[M:2/4] [G,B,E]4 | %17
[M:1/4] C>D |[M:3/4] E2 D2 C2 | G4 C>D | E2 D2 C2 |[M:5/8] [=B,D]2 [B,D]3 |[M:1/4] [B,D][B,D] | %23
[M:3/4] E2 E2 E2 | z2 z2 .B2 | [DB]2 [DF]2 [DA]2 | [EG]4 [GB][GB] | [Ge]2 [Bd]2 .[CAc]2 | %28
 [EGB]4 [B,GB][B,GB] | [B,FA]2 [B,DF]2 [DAc]2 | [EGB]2 [B,EG]2 [B,GB][B,GB] | [Ge]2 [Gd]2 [Gc]2 | %32
 B2 F2 Bd | [=Af]2 [FAd]2 c2 | B4 B>B | B2 B2 B>[DAB] | [EGB]2 [EGB]2 [B,EG]>[B,FA] | %37
 [EGB]2 [EGe]2 [EBd]2 | [EAc]4 [EAc]>[EAc] | [EGB]2 [Be]2 [Ee]>[Ee] |[M:4/4] [_Ge]6 [=A,E]>[A,EF] | %41
[M:3/4] E->[EA] [B,EG]2 [A,DF]2 | [G,B,E]4 z2 |] %43
V:2
 z2 z2 [E,G,]>[E,A,E] | [E,B,E]2 [E,B,E]2 [E,B,E]>[E,=A,E] | [E,B,E]4 [E,G,B,]>[E,B,E] | %3
 [E,E]2 [E,B,]2 [E,E]2 | [E,E]2 [E,B,]2 [D,B,]>[E,B,] | [B,,B,]2 [B,,B,]2 [B,,B,]2 | %6
 [B,,A,]4 [B,,G,]>[B,,A,] | [E,B,E]2 [E,CE]2 [E,A,E]2 | [E,G,E]4 [E,E]>[E,E] | %9
 [E,B,]2 [E,B,]2 [E,C]>[E,D] | [E,E]4 [E,B,][E,G,] | [B,,F,]2 [B,,B,]2 [B,,B,]2 | %12
 [E,A,E]2 [E,G,E]2 G,>F, | E,F, G,A, B,C | z2 z2 [B,E]2 | [G,B,E]>[A,CF][K:bass] B,2 B,,2 | %16
[M:2/4] E,4 |[M:1/4] C,>D, |[M:3/4] E,2 D,2 C,2 | G,4 C,>D, | E,2 D,2 C,2 | %21
[M:5/8] [G,,G,]2 [G,,G,]3 |[M:1/4] [G,,G,][G,,G,] |[M:3/4] [C,G,C]2 [C,G,C]2 [C,G,C]2 | %24
 [B,,B,]2 [B,,B,]2 [B,,F,]2 | [B,,F,]2 [B,,B,]2 [B,,B,]2 | [E,B,]4 [E,B,][E,B,] | %27
 [E,B,]2 [E,B,]2 z D | E,4 E,E, | B,,2 B,,2 B,,2 | E,2 E,2 E,E, | [E,C]2 [D,=B,]2 [E,C]2 | %32
 [F,DF]2 [F,B,D]2 [F,DF]2 | z z/[K:treble] e/ F,2 [F,EF]2 | [B,DF]4 [A,B,D]>[K:bass][A,B,D] | %35
 [G,B,E]2 [G,B,E]2 [F,B,D]>B,, | E,2 E,2 E,>E, | E,2 E,2 G,2 | A,4 A,>A, | %39
 E,2 [E,G,]2 [C,G,]>[C,G,] |[M:4/4] [=B,,=A,]6 B,,>B,, |[M:3/4] z z/ C/ B,,2 B,,2 | E,4 z2 |] %43
V:3
 x6 | x6 | x6 | x6 | x6 | x6 | x6 | x6 | x6 | x6 | x6 | x6 | x6 | x6 | B2 [Ge]2 z z/ A/ | %15
 B>A E2 [A,DF]2 |[M:2/4] x4 |[M:1/4] x2 |[M:3/4] x6 | x6 | x6 |[M:5/8] x5 |[M:1/4] x2 |[M:3/4] x6 | %24
 [DF]2 [DF]2 D-[Dc] | x6 | x6 | x6 | x6 | x6 | x6 | x6 | x6 | x6 | x6 | x6 | x6 | x6 | x6 | x6 | %40
[M:4/4] x8 |[M:3/4] [B,G]2 z2 z2 | x6 |] %43
V:4
 x6 | x6 | x6 | x6 | x6 | x6 | x6 | x6 | x6 | x6 | x6 | x6 | x6 | x6 | B,2 [E,B,]2 E,>F, | %15
 x2[K:bass] x4 |[M:2/4] x4 |[M:1/4] x2 |[M:3/4] x6 | x6 | x6 |[M:5/8] x5 |[M:1/4] x2 |[M:3/4] x6 | %24
 x6 | x6 | x6 | z2 z2 E,2 | x6 | x6 | x6 | x6 | x6 | [F,C]2[K:treble] z2 z2 | x11/2[K:bass] x/ | %35
 x6 | x6 | x6 | x6 | x6 |[M:4/4] x8 |[M:3/4] B,,2 z2 z2 | x6 |] %43

